outputs/icons/action/history_sharp.svg

<svg xmlns="http://www.w3.org/2000/svg" width="1200" height="1200" fill="none"><g clip-path="url(#a)"><path fill="#000" d="M650 150c-248.5 0-450 201.5-450 450H50l194.5 194.5 3.5 7L450 600H300c0-193.5 156.5-350 350-350s350 156.5 350 350-156.5 350-350 350c-96.5 0-184-39.5-247-103l-71 71c81.5 81.5 193.5 132 318 132 248.5 0 450-201.5 450-450S898.5 150 650 150m-50 250v250l212.5 126 38.5-64.5L675 607V400z"/></g><defs><clipPath id="a"><path fill="#fff" d="M0 0h1200v1200H0z"/></clipPath></defs></svg>

<svg width="1200" height="1200" viewBox="0 0 1200 1200" fill="none" xmlns="http://www.w3.org/2000/svg"><g clip-path="url(#clip0_117_789)"><path d="M650 150C401.5 150 200 351.5 200 600H50L244.5 794.5L248 801.5L450 600H300C300 406.5 456.5 250 650 250C843.5 250 1000 406.5 1000 600C1000 793.5 843.5 950 650 950C553.5 950 466 910.5 403 847L332 918C413.5 999.5 525.5 1050 650 1050C898.5 1050 1100 848.5 1100 600C1100 351.5 898.5 150 650 150ZM600 400V650L812.5 776L851 711.5L675 607V400H600Z" fill="#1D1E23"/></g><defs><clipPath id="clip0_117_789"><path width="24" fill="white" d="M0 0H1200V1200H0V0z"/></clipPath></defs></svg>
